packages/office-viewer/src/excel/io/excel/preset/icons/exclamationYellow.svg

<svg width="16" height="16" viewBox="0 0 16 16" fill="none" xmlns="http://www.w3.org/2000/svg">
	<path d="M15 8C15 11.866 11.866 15 8 15C4.13401 15 1 11.866 1 8C1 4.13401 4.13401 1 8 1C11.866 1 15 4.13401 15 8Z" fill="#F8DB8F" />
	<path d="M14.5 8C14.5 11.5899 11.5899 14.5 8 14.5C4.41015 14.5 1.5 11.5899 1.5 8C1.5 4.41015 4.41015 1.5 8 1.5C11.5899 1.5 14.5 4.41015 14.5 8Z" stroke="black" stroke-opacity="0.2" />
	<path d="M7.27152 8.6539L7.0596 5.49009C7.01987 4.87362 7 4.43109 7 4.16248C7 3.79701 7.09492 3.51299 7.28477 3.31044C7.47903 3.10348 7.73289 3 8.04636 3C8.42605 3 8.67991 3.1321 8.80795 3.3963C8.93598 3.6561 9 4.03258 9 4.52576C9 4.81638 8.98455 5.1114 8.95364 5.41083L8.66887 8.66711C8.63797 9.0546 8.57174 9.35183 8.4702 9.55878C8.36865 9.76574 8.20088 9.86922 7.96689 9.86922C7.72848 9.86922 7.56291 9.77015 7.4702 9.57199C7.37748 9.36944 7.31126 9.06341 7.27152 8.6539ZM8.00662 13C7.73731 13 7.5011 12.9141 7.29801 12.7424C7.09934 12.5663 7 12.3219 7 12.0092C7 11.7362 7.09492 11.5051 7.28477 11.3157C7.47903 11.122 7.71523 11.0251 7.99338 11.0251C8.27152 11.0251 8.50773 11.122 8.70199 11.3157C8.90066 11.5051 9 11.7362 9 12.0092C9 12.3175 8.90066 12.5597 8.70199 12.7358C8.50331 12.9119 8.27152 13 8.00662 13Z" fill="white" />
</svg>

<svg xmlns="http://www.w3.org/2000/svg" width="16" height="16" fill="none"><path fill="#F8DB8F" d="M15 8A7 7 0 1 1 1 8a7 7 0 0 1 14 0"/><path stroke="#000" stroke-opacity=".2" d="M14.5 8a6.5 6.5 0 1 1-13 0 6.5 6.5 0 0 1 13 0Z"/><path fill="#fff" d="M7.272 8.654 7.06 5.49Q7 4.566 7 4.162q0-.548.285-.852.291-.31.761-.31.57 0 .762.396.192.39.192 1.13 0 .435-.046.885l-.285 3.256q-.046.582-.199.892a.52.52 0 0 1-.503.31q-.358 0-.497-.297-.14-.305-.198-.918M8.007 13q-.405 0-.709-.258Q7 12.478 7 12.01q0-.41.285-.693a.97.97 0 0 1 .708-.29q.418 0 .709.29.298.284.298.693 0 .462-.298.727T8.007 13"/></svg>
